!!!COM: Scriabin, Alexander
!!!OTL: Mazurka
!!!OPR: 9 Mazurkas
!!!OPS: 25
!!!ONM: 6
!!!ODT: 1899
!!!AGN: Mazurka
**kern	**kern
*staff2	*staff1
*clefF4	*clefG2
*k[f#c#g#d#a#e#]	*k[f#c#g#d#a#e#]
*F#:	*F#:
*M3/4	*M3/4
=1	=1
*^	*^
4Gn	2.FF# 2.C#	8d#L	2.B
.	.	8e#J	.
2G#X	.	2c#	.
*v	*v	*	*
=2	=2	=2
8c#L	8e#L	2B
[8C#J	8f#J	.
4FF# 4C#]	4c#	.
8c#L	8d#L 8f#	[4B
[8C#J	8e#J 8g#	.
=3	=3	=3
*	*	*^
4FF# 4C#]	4c#	4B]	4r
4c#	8g#L	4f#	2B\
.	8a#	.	.
[4C#	8cc#	[4e#	.
.	8c#J	.	.
=4	=4	=4	=4
*^	*	*	*
2C#]	2.FF#	4a#	4e#]	2.A#\
.	.	4raa	8d#L	.
.	.	.	8e#	.
4c#	.	4raa	8c#	.
.	.	.	8d#J	.
*v	*v	*	*	*
=5	=5	=5	=5
4GG#	4e#	4.c#	4G#\
8AA#L	8d#L	.	4F#\
8GG#J	8e#J	8B#X	.
4C#	8.c#	8.G#	8.E#\
.	16raa	16rc	16r
*	*	*v	*v
=6	=6	=6
8.A#L	4ee#	2f# 2cc#
16D#Jk	.	.
4A#	4dd#	.
4G#	4ee#	4f# 4b#X
=7	=7	=7
8.c#L	2.g# 2.cc#	8.f#L
16G#Jk	.	16d#Jk
2c#	.	2e#
=8	=8	=8
*^	*	*
8.A#L	4rEE	2cc#	2.d# 2.f#
[16G#Jk	.	.	.
2G#]	4.D#	.	.
.	.	4bn	.
.	8D#	.	.
=9	=9	=9	=9
*	*	*	*^
8.c#L	4rEE	4a#	2f#	2.d#\
[16BJk	.	.	.	.
2B]	4.D#	4g#	.	.
.	.	4d#	4rc	.
.	8D#	.	.	.
*	*	*	*v	*v
=10	=10	=10	=10
2.B	4GG#	8f#L	4d#
.	.	8g#J	.
.	[2D#	4a#	[2f#
.	.	8g#L	.
.	.	8bJ	.
=11	=11	=11	=11
2B	2D#]	4.ff#	2f#] 2g#
.	.	8ee#	.
4A#	4D#	8dd#L	4f# 4a#
.	.	8a#J	.
=12	=12	=12	=12
8.A#L	4rEE	2cc#	2.d# 2.f#
[16G#Jk	.	.	.
2G#]	4.D#	.	.
.	.	4b	.
.	8D#	.	.
=13	=13	=13	=13
*	*	*	*^
8.c#L	4rEE	4a#	2f#	2.d#\
[16BJk	.	.	.	.
2B]	4.D#	4g#	.	.
.	.	4d#	4rc	.
.	8D#	.	.	.
*	*	*	*v	*v
=14	=14	=14	=14
2.B	4.GG#	8f#L	4d#
.	.	8g#J	.
.	.	4a#	4f#
.	4.C#	.	.
.	.	4g#	4e#
=15	=15	=15	=15
2A#	2F#	8a#L	2c#
.	.	8g#J	.
.	.	4f#	.
4F#	4FF# 4C#	4c#	4A#
=16	=16	=16	=16
4Gn	2.FF# 2.C#	8d#L	2.B
.	.	8e#J	.
2G#X	.	2c#	.
*v	*v	*	*
=17	=17	=17
8c#L	8e#L	2B
[8C#J	8f#J	.
4FF# 4C#]	4c#	.
8c#L	8d#L 8f#	[4B
[8C#J	8e#J 8g#	.
=18	=18	=18
*	*	*^
4FF# 4C#]	4c#	4B]	4r
4c#	8g#L	4f#	2B\
.	8a#	.	.
[4C#	8cc#	[4e#	.
.	8c#J	.	.
=19	=19	=19	=19
*^	*	*	*
2C#]	2.FF#	4a#	4e#]	2.A#\
.	.	4raa	8d#L	.
.	.	.	8e#	.
4c#	.	4raa	8c#	.
.	.	.	8d#J	.
*v	*v	*	*	*
=20	=20	=20	=20
4GG#	4e#	4.c#	4G#\
8AA#L	8d#L	.	4F#\
8GG#J	8e#J	8B#X	.
4C#	8.c#	8.G#	8.E#\
.	16raa	16rc	16r
*	*	*v	*v
=21	=21	=21
8.A#L	4ee#	2f# 2cc#
16D#Jk	.	.
4A#	4dd#	.
4G#	4ee#	4f# 4b#X
=22	=22	=22
8.c#L	2.g# 2.cc#	8.f#L
16G#Jk	.	16d#Jk
2c#	.	2e#
=23	=23	=23
*^	*	*
8.A#L	4rEE	2cc#	2.d# 2.f#
[16G#Jk	.	.	.
2G#]	4.D#	.	.
.	.	4bn	.
.	8D#	.	.
=24	=24	=24	=24
*	*	*	*^
8.c#L	4rEE	4a#	2f#	2.d#\
[16BJk	.	.	.	.
2B]	4.D#	4g#	.	.
.	.	4d#	4rc	.
.	8D#	.	.	.
*	*	*	*v	*v
=25	=25	=25	=25
2.B	4GG#	8f#L	4d#
.	.	8g#J	.
.	[2D#	4a#	[2f#
.	.	8g#L	.
.	.	8bJ	.
=26	=26	=26	=26
2B	2D#]	4.ff#	2f#] 2g#
.	.	8ee#	.
4A#	4D#	8dd#L	4f# 4a#
.	.	8a#J	.
=27	=27	=27	=27
8.A#L	4rEE	2cc#	2.d# 2.f#
[16G#Jk	.	.	.
2G#]	4.D#	.	.
.	.	4b	.
.	8D#	.	.
=28	=28	=28	=28
*	*	*	*^
8.c#L	4rEE	4a#	2f#	2.d#\
[16BJk	.	.	.	.
2B]	4.D#	4g#	.	.
.	.	4d#	4rc	.
.	8D#	.	.	.
*	*	*	*v	*v
=29	=29	=29	=29
2.B	4.GG#	8f#L	4d#
.	.	8g#J	.
.	.	4a#	4f#
.	4.C#	.	.
.	.	4g#	4e#
=30	=30	=30	=30
2.A#	2F#	8a#L	2c#
.	.	8g#J	.
.	.	4f#	.
.	4E#	4c#	4A#
=31	=31	=31	=31
8.E#L	4rEE	2g#	2.A# 2.c#
[16D#Jk	.	.	.
2D#]	4.AA#	.	.
.	.	4f#	.
.	8AA#	.	.
=32	=32	=32	=32
*	*	*	*^
8.G#L	4rEE	4e#	2c#	2.A#\
[16F#Jk	.	.	.	.
2F#]	4.AA#	4d#	.	.
.	.	4A#	4rc	.
.	8AA#	.	.	.
*	*	*	*v	*v
=33	=33	=33	=33
2.F#	4DD#	8c#L	4A#
.	.	8d#J	.
.	[2AA#	4e#	[2c#
.	.	8d#L	.
.	.	8f#J	.
=34	=34	=34	=34
2F#	2AA#]	4.cc#	2c#] 2d#
.	.	8b#X	.
4E#	4AA#	8a#L	4c# 4e#
.	.	8e#J	.
=35	=35	=35	=35
8.E#L	4rEE	2g#	2.A# 2.c#
[16D#Jk	.	.	.
2D#]	4.AA#	.	.
.	.	4f#	.
.	8AA#	.	.
=36	=36	=36	=36
*	*	*	*^
8.G#L	4rEE	4e#	2c#	2.A#\
[16F#Jk	.	.	.	.
2F#]	4.AA#	4d#	.	.
.	.	4A#	4rc	.
.	8AA#	.	.	.
*v	*v	*	*	*
*	*v	*v	*v
=37	=37
4DD#	8F#L 8c# 8d#
.	8G#J 8c# 8e#
4D#	4A# 4c# 4f#
8.AA#L	4F# 4c# 4e#
[16GG#Jk	.
=38	=38
*	*^
*	*	*^
4..GGG# 4..GG#]	8.e#L	2c#	4.F#\
.	16d#Jk	.	.
.	4G#	.	.
.	.	.	8r
[16GG#	.	.	.
4GG#] 4G#	8raa	4B#X	4r
.	8f# 8a#	.	.
*	*v	*v	*v
=39	=39
*^	*
2.F# 2.G#	2GG#	8A# 8c#
.	.	8r
.	.	4.B#X 4.d#
.	4CC#	.
.	.	8f# 8a#
=40	=40	=40
2.F# 2.G#	2GG#	8B#XL 8d#
.	.	16r
.	.	16c#Jk 16e#
.	.	8c#L 8e#
.	.	8B#J 8d#
.	4CC#	8r
.	.	8a# 8cc#
=41	=41	=41
*	*^	*
2.G#	4E#	2GG#\	8c# 8e#
.	.	.	8r
.	2D#	.	4.d# 4.f#
.	.	4CC#\	.
.	.	.	8a# 8cc#
=42	=42	=42	=42
2.G#	2.C#	2GG#\	8e#L 8g#
.	.	.	16r
.	.	.	16f#Jk 16a#
.	.	.	8f#L 8a#
.	.	.	8e#J 8g#
.	.	4CC#\	8r
.	.	.	8a# 8cc#
*	*v	*v	*
=43	=43	=43
2.C# 2.A#	2C#	8d#L 8f#
.	.	16r
.	.	16e#Jk 16g#
.	.	8e#L 8g#
.	.	8d#J 8f#
.	4FF#	8r
.	.	8f# 8a#
=44	=44	=44
2.C# 2.G#	4rEE	8c#L 8e#
.	.	16r
.	.	16d#Jk 16f#
.	4rEE	8d#L 8f#
.	.	8c#J 8e#
.	4CC#	8r
.	.	8a# 8cc#
=45	=45	=45
2.C# 2.A#	4rEE	8d#L 8f#
.	.	16r
.	.	16e#Jk 16g#
.	4rEE	8e#L 8g#
.	.	8d#J 8f#
.	4FF#	8r
.	.	8f# 8a#
=46	=46	=46
2.C# 2.G#	4rEE	8c#L 8e#
.	.	16r
.	.	16d#Jk 16f#
.	4rEE	8d#L 8f#
.	.	8c#J 8e#
.	4CC#	8r
.	.	8e# 8g#
=47	=47	=47
2.D# 2.G#	2GG#	2.B 2.d#
.	4GG#	.
*v	*v	*
=48	=48
2AA# 2E#	2A# 2c##X
4AA# 4En	4G# 4c#X
=49	=49
*	*^
4AAA# 4AA#	4a# 4cc# 4een	8g#L
.	.	8f#
[2GG# [2G#	4a# 4cc# 4ff#	8f#
.	.	8en
.	4a# 4cc# 4gg#	8e
.	.	8c#J
=50	=50	=50
4GG#] 4G#]	8a#L	4c# 4en
.	8bJ	.
2AAA# 2AA#	4cc#	4e 4g#
.	4g#	4c# 4e
=51	=51	=51
2.DD# 2.D#	8c#L 8a#	4g#
.	8d# 8b	.
.	8f# 8dd#	4g#
.	8en 8cc#	.
.	8d# 8b	4f##X
.	8c#J 8a#	.
=52	=52	=52
*	*	*^
2.GG# 2.D#	8d#L 8b	4f##X	4r
.	8c#J 8a#	.	.
.	4g#	4g#	2B\
.	4d#	4rc	.
*	*	*v	*v
=53	=53	=53
4GGG# 4GG#	4g# 4b 4dd#	8f#XL
.	.	8e#XJ
[2DD# [2D#	4g# 4b 4ee#	8e#L
.	.	8d#J
.	4g# 4b 4ff#	8d#L
.	.	8BJ
=54	=54	=54
4DD#] 4D#]	8g#L	4B 4f#
.	8a#J	.
2GGG# 2GG#	4b	4d# 4f#
.	4f#	4B 4d#
=55	=55	=55
2GGG# 2GG#	8BL 8g#	4f#
.	8c# 8a#	.
.	8e# 8cc#	4f#
.	8d# 8b	.
4CC# 4C#	8c# 8a#	4e#
.	8BJ 8g#	.
=56	=56	=56
*^	*	*
2FFF# 2FF#	2rEE	8c#L 8a#	4e#
.	.	8BJ 8g#	.
.	.	4A# 4f#	4rc
4F#	4FF# 4C#	4c#	4A#
=57	=57	=57	=57
4Gn	2.FF# 2.C#	8d#L	2.B
.	.	8e#J	.
2G#X	.	2c#	.
*v	*v	*	*
=58	=58	=58
8c#L	8e#L	2B
[8C#J	8f#J	.
4FF# 4C#]	4c#	.
8c#L	8d#L 8f#	[4B
[8C#J	8e#J 8g#	.
=59	=59	=59
*	*	*^
4FF# 4C#]	4c#	4B]	4r
4c#	8g#L	4f#	2B\
.	8a#	.	.
[4C#	8cc#	[4e#	.
.	8c#J	.	.
=60	=60	=60	=60
*^	*	*	*
2C#]	2.FF#	4a#	4e#]	2.A#\
.	.	4raa	8d#L	.
.	.	.	8e#	.
4c#	.	4raa	8c#	.
.	.	.	8d#J	.
*v	*v	*	*	*
=61	=61	=61	=61
4GG#	4e#	4.c#	4G#\
8AA#L	8d#L	.	4F#\
8GG#J	8e#J	8B#X	.
4C#	8.c#	8.G#	8.E#\
.	16raa	16rc	16r
*	*	*v	*v
=62	=62	=62
8.A#L	4ee#	2f# 2cc#
16D#Jk	.	.
4A#	4dd#	.
4G#	4ee#	4f# 4b#X
=63	=63	=63
8.c#L	2.g# 2.cc#	8.f#L
16G#Jk	.	16d#Jk
2c#	.	2e#
=64	=64	=64
*^	*	*
8.A#L	4rEE	2cc#	2.d# 2.f#
[16G#Jk	.	.	.
2G#]	4.D#	.	.
.	.	4bn	.
.	8D#	.	.
=65	=65	=65	=65
*	*	*	*^
8.c#L	4rEE	4a#	2f#	2.d#\
[16BJk	.	.	.	.
2B]	4.D#	4g#	.	.
.	.	4d#	4rc	.
.	8D#	.	.	.
*	*	*	*v	*v
=66	=66	=66	=66
2.B	4GG#	8f#L	4d#
.	.	8g#J	.
.	[2D#	4a#	[2f#
.	.	8g#L	.
.	.	8bJ	.
=67	=67	=67	=67
2B	2D#]	4.ff#	2f#] 2g#
.	.	8ee#	.
4A#	4D#	8dd#L	4f# 4a#
.	.	8a#J	.
=68	=68	=68	=68
8.A#L	4rEE	2cc#	2.d# 2.f#
[16G#Jk	.	.	.
2G#]	4.D#	.	.
.	.	4b	.
.	8D#	.	.
=69	=69	=69	=69
*	*	*	*^
8.c#L	4rEE	4a#	2f#	2.d#\
[16BJk	.	.	.	.
2B]	4.D#	4g#	.	.
.	.	4d#	4rc	.
.	8D#	.	.	.
*v	*v	*	*	*
*	*v	*v	*v
=70	=70
4GG#	8BL 8f# 8g#
.	8c#J 8f# 8a#
4G#	4d# 4f# 4b
4D#	8c#L 8f# 8a#
.	8BJ 8f# 8g#
=71	=71
*	*^
*	*	*^
2.C#	8g#L	4f#	2.B\
.	8a#J	.	.
.	4cc#	2e#	.
.	4c#	.	.
*	*v	*v	*v
=72	=72
4GGG# 4GG#	8BL 8f# 8g#
.	8c#J 8f# 8a#
4GG# 4G#	4d# 4f# 4b
4DD# 4D#	8c#L 8f# 8a#
.	8BJ 8f# 8g#
=73	=73
4GG# 4G#	8bL 8ff# 8gg#
.	8cc#J 8ff# 8aa#
4G# 4g#	4dd# 4ff# 4bb
4D# 4d#	8cc#L 8ff# 8aa#
.	8bJ 8ff# 8gg#
*clefG2	*
=74	=74
4G# 4g#	8bbL 8fff# 8ggg#
.	8ccc# 8fff# 8aaa#
4g# 4gg#	8eee# 8fff# 8cccc#
.	8ddd# 8fff# 8bbb
8.d# 8.dd#	8ccc# 8fff# 8aaa#
.	8bbJ 8fff# 8ggg#
[16cc#	.
=75	=75
4..c# 4..cc#]	8aa#L 8bb 8fff#
.	8gg# 8bb 8eee#
.	8ff# 8bb 8ddd#
.	8ee#J 8bb 8ccc#
*clefF4	*
[16C#	.
4C#] 4c#	8r
.	8dd# 8bb 8ddd#
=76	=76
2C# 2B 2c#	4f# 4cc# 4dd# 4ff#
.	4.g# 4.cc# 4.ee# 4.gg#
4FFF# 4FF#	.
.	8dd# 8bb 8ddd#
=77	=77
2C# 2B 2c#	8g#L 8cc# 8ee# 8gg#
.	16r
.	16a#Jk 16cc# 16ff# 16aa#
.	8a#L 8cc# 8ff# 8aa#
.	8g#J 8cc# 8ee# 8gg#
4FFF# 4FF#	8r
.	8ff# 8ddd# 8fff#
=78	=78
4C# 4A# 4c#	4a# 4ff# 4aa#
4C# 4G# 4c#	4.b 4.gg# 4.bb
4FFF# 4FF#	.
.	8ff# 8ddd# 8fff#
=79	=79
2C# 2F# 2c#	8cc#L 8aa# 8ccc#
.	16r
.	16dd#Jk 16bb 16ddd#
.	8dd#L 8bb 8ddd#
.	8cc#J 8aa# 8ccc#
4FFF# 4FF#	8r
.	8ff# 8ddd# 8fff#
=80	=80
4D# 4d#	8bL 8ff# 8gg# 8bb
.	16r
.	16cc#Jk 16ff# 16aa# 16ccc#
4FF# 4F#	8cc#L 8ff# 8aa# 8ccc#
.	8bJ 8ff# 8gg# 8bb
4BBB 4BB	8r
.	8dd# 8bb 8ddd#
=81	=81
16%3C# 16%3c#	8a#L 8ff# 8aa#
.	16r
16%3FF# 16%3F#	16bJk 16ff# 16gg# 16bb
.	8bL 8ff# 8gg# 8bb
16%3CC# 16%3C#	8a#J 8ff# 8aa#
.	8r
16%3FFF# 16%3FF#	.
.	8ff# 8ddd# 8fff#
=82	=82
4D# 4d#	8bL 8ff# 8gg# 8bb
.	16r
.	16cc#Jk 16ff# 16aa# 16ccc#
4FF# 4F#	8cc#L 8ff# 8aa# 8ccc#
.	8bJ 8ff# 8gg# 8bb
4BBB 4BB	8r
.	8dd# 8bb 8ddd#
=83	=83
16%3C# 16%3c#	8a#L 8ff# 8aa#
.	16r
16%3FF# 16%3F#	16bJk 16ff# 16gg# 16bb
.	8bL 8ff# 8gg# 8bb
16%3CC# 16%3C#	8a#J 8ff# 8aa#
.	8r
16%3FFF# 16%3FF#	.
.	8ff# 8ddd# 8fff#
=84	=84
4D# 4d#	8bL 8ff# 8gg# 8bb
.	16r
.	16cc#Jk 16ff# 16aa# 16ccc#
4FF# 4F#	8cc#L 8ff# 8aa# 8ccc#
.	8bJ 8ff# 8gg# 8bb
4BBB 4BB	8r
.	8bb 8ggg# 8bbb
=85	=85
4F# 4f#	8dd#L 8bb 8ddd#
.	16r
.	16ee#Jk 16ccc# 16eee#
4BB 4B	8ee#L 8ccc# 8eee#
.	8dd#J 8bb 8ddd#
4FF# 4F#	8r
.	8ddd# 8bbb 8dddd#
=86	=86
4G# 4g#	8ff#L 8ddd# 8fff#
.	16r
.	16gg#Jk 16eee# 16ggg#
4F# 4f#	8gg#L 8eee# 8ggg#
.	8ff#J 8ddd# 8fff#
4BB 4B	8r
.	8fff# 8dddd# 8ffff#
*clefG2	*
=87	=87
4f# 4ff#	8bbL 8fff# 8ggg# 8bbb
.	16r
.	16ccc#Jk 16fff# 16aaa# 16cccc#
4d# 4dd#	8ccc#L 8fff# 8aaa# 8cccc#
.	8bbJ 8fff# 8ggg# 8bbb
4F# 4f#	8r
.	8ddd# 8bbb 8dddd#
*clefF4	*
=88	=88
*	*^
4FFF# 4FF#	4fff# 4cccc# 4ffff#	8bbbL
.	.	8aaa#J
4CC# 4C#	8cccc#L	4ggg#
.	8ccc#J	.
4FF# 4F#	4ff# 4ccc# 4fff#	8bbL
.	.	8aa#J
=89	=89	=89
4C# 4c#	8ccc#L	4gg#
.	8cc#J	.
4F# 4f#	4f# 4cc# 4ff#	8bL
.	.	8a#J
*clefG2	*	*
8c# 8cc#	4cc#	8g#L
8r	.	8c#J
*	*v	*v
=90	=90
2.f# 2.a# 2.ff#	2.F# 2.c# 2.f#
*clefF4	*
=91	=91
2.FF# 2.C# 2.F#	2.A# 2.c# 2.f# 2.a#
=92	=92
2.FF# 2.C# 2.F#	2.A# 2.c# 2.f# 2.a#
==	==
*-	*-
!!!system-decoration: {(*)}
!!!ENC: Bryan Jacob Bell
!!!END: November 2021 to April 2022
!!!PED: Günter Philipp
!!!PTL: Ausgewählte Klavierwerke (Edition Peters)
